X:565
T: KOMMT EIN VOGERL GEFLOGEN
N: F1120
O: Europa, Mitteleuropa, Deutschland
R: Liebes - Lied, Trennung, Heimweh
M: 3/4
L: 1/8
K: A
cd | e2c2c2 | c2B2
Bc | d2B2B2 | c2z2
cd | e2c2c2 | c2B2
Bc | d2G2G2 | A2z2

